layouts/partials/svgs/scroll-up.svg

<svg
   width="100%"
   height="100%"
   viewBox="0 20 300 200"
   version="1.1"
   xml:space="preserve"
   style="fill-rule:evenodd;clip-rule:evenodd;stroke-linecap:round;stroke-linejoin:round;stroke-miterlimit:1.5;"
   id="svg7"
   sodipodi:docname="scroll-up.svg"
   inkscape:version="1.4 (86a8ad7, 2024-10-11)"
   inkscape:export-filename="scroll-up.svg"
   inkscape:export-xdpi="96"
   inkscape:export-ydpi="96"
   xmlns:inkscape="http://www.inkscape.org/namespaces/inkscape"
   xmlns:sodipodi="http://sodipodi.sourceforge.net/DTD/sodipodi-0.dtd"
   xmlns="http://www.w3.org/2000/svg"
   xmlns:svg="http://www.w3.org/2000/svg"><defs
   id="defs7" /><sodipodi:namedview
   id="namedview7"
   pagecolor="#ffffff"
   bordercolor="#000000"
   borderopacity="0.25"
   inkscape:showpageshadow="2"
   inkscape:pageopacity="0.0"
   inkscape:pagecheckerboard="0"
   inkscape:deskcolor="#d1d1d1"
   inkscape:zoom="9.265"
   inkscape:cx="150.02698"
   inkscape:cy="117.26929"
   inkscape:window-width="2849"
   inkscape:window-height="1429"
   inkscape:window-x="4639"
   inkscape:window-y="217"
   inkscape:window-maximized="0"
   inkscape:current-layer="g7" />
    <g
   transform="matrix(0.855083,0,0,0.633701,21.7376,73.7546)"
   id="g1">
        <path
   d="M0,180L150,0.536L300,180"
   style="fill:none;stroke:#591123;stroke-width:39.86055859;stroke-dasharray:none;stroke-opacity:1"
   id="path1" />
    </g>
    <g
   transform="matrix(0.642933,6.84109e-34,-6.84109e-34,0.642933,-121.724,87.7512)"
   id="g7">
        <g
   transform="matrix(120,0,0,120,278.333,164.127)"
   id="g2">
            <path
   d="M0.489,-0.624L0.602,-0.624C0.674,-0.624 0.713,-0.622 0.758,-0.617L0.758,-0.808C0.712,-0.803 0.672,-0.801 0.602,-0.801L0.164,-0.801C0.103,-0.801 0.048,-0.804 0.015,-0.808L0.015,-0.617C0.086,-0.623 0.103,-0.624 0.166,-0.624L0.284,-0.624L0.284,-0.12C0.284,-0.057 0.282,-0.016 0.276,0.031L0.497,0.031C0.491,-0.016 0.489,-0.06 0.489,-0.12L0.489,-0.624Z"
   style="fill:#faf2da;fill-rule:nonzero;fill-opacity:1"
   id="path2" />
        </g>
        <g
   transform="matrix(120,0,0,120,371.093,164.127)"
   id="g3">
            <path
   d="M0.441,-0.819C0.195,-0.819 0.037,-0.65 0.037,-0.386C0.037,-0.121 0.195,0.05 0.44,0.05C0.683,0.05 0.844,-0.125 0.844,-0.389C0.844,-0.651 0.687,-0.819 0.441,-0.819ZM0.441,-0.123C0.319,-0.123 0.244,-0.224 0.244,-0.387C0.244,-0.548 0.319,-0.647 0.441,-0.647C0.562,-0.647 0.636,-0.549 0.636,-0.387C0.636,-0.223 0.562,-0.123 0.441,-0.123Z"
   style="fill:#faf2da;fill-rule:nonzero;fill-opacity:1"
   id="path3"
   inkscape:label="path3" />
        </g>
        <g
   transform="matrix(120,0,0,120,476.933,164.127)"
   id="g4">
            <path
   d="M 0.277,0.031 C 0.272,-0.012 0.269,-0.061 0.269,-0.12 v -0.128 h 0.158 c 0.194,0 0.308,-0.106 0.308,-0.284 0,-0.174 -0.109,-0.269 -0.307,-0.269 H 0.209 c -0.064,0 -0.1,-0.001 -0.147,-0.003 0.006,0.047 0.008,0.092 0.008,0.146 v 0.541 c 0,0.059 -0.002,0.104 -0.008,0.148 z M 0.269,-0.418 v -0.213 h 0.149 c 0.072,0 0.111,0.036 0.111,0.105 0,0.069 -0.041,0.108 -0.111,0.108 z"
   style="display:inline;fill:#faf2da;fill-rule:nonzero;fill-opacity:1"
   id="path4" />
        </g>
        <path
   d="M344.789,97.024L350.573,97.024C358.816,97.024 363.282,97.244 368.434,97.817C370.632,98.061 372.831,97.358 374.479,95.882C376.127,94.407 377.069,92.3 377.069,90.087L377.069,67.167C377.069,64.959 376.13,62.854 374.486,61.379C372.842,59.904 370.648,59.197 368.452,59.436C363.18,60.009 358.595,60.231 350.573,60.231L298.013,60.231C291.076,60.231 284.821,59.902 281.068,59.447C278.859,59.179 276.641,59.871 274.975,61.347C273.309,62.823 272.356,64.942 272.356,67.167L272.356,90.087C272.356,92.264 273.268,94.341 274.87,95.813C276.472,97.286 278.619,98.02 280.787,97.837C289,97.143 290.966,97.024 298.253,97.024C298.253,97.024 304.636,97.024 304.636,97.024C304.636,97.024 304.636,149.727 304.636,149.727C304.636,156.876 304.419,161.529 303.738,166.863C303.455,169.079 304.139,171.31 305.616,172.987C307.092,174.663 309.218,175.624 311.453,175.624L337.973,175.624C340.207,175.624 342.333,174.663 343.809,172.987C345.286,171.31 345.97,169.079 345.687,166.863C345.006,161.529 344.789,156.536 344.789,149.727L344.789,97.024ZM337.013,89.247L350.573,89.247C359.213,89.247 363.893,89.487 369.293,90.087L369.293,67.167C363.773,67.767 358.973,68.007 350.573,68.007L298.013,68.007C290.693,68.007 284.093,67.647 280.133,67.167L280.133,90.087C288.653,89.367 290.693,89.247 298.253,89.247L312.413,89.247L312.413,149.727C312.413,157.287 312.173,162.207 311.453,167.847L337.973,167.847C337.253,162.207 337.013,156.927 337.013,149.727L337.013,89.247Z"
   style="fill:#591123;fill-opacity:1"
   id="path5" />
        <path
   d="M424.013,58.071C406.847,58.071 392.822,64.139 383.018,74.641C373.389,84.955 367.756,99.715 367.756,117.807C367.756,135.943 373.378,150.786 382.976,161.171C392.772,171.77 406.78,177.904 423.893,177.904C457.529,177.904 480.149,153.991 480.149,117.447C480.149,99.472 474.544,84.799 464.939,74.542C455.169,64.109 441.179,58.071 424.013,58.071ZM424.013,65.847C394.493,65.847 375.533,86.127 375.533,117.807C375.533,149.607 394.493,170.127 423.893,170.127C453.053,170.127 472.373,149.127 472.373,117.447C472.373,86.007 453.533,65.847 424.013,65.847ZM424.013,149.367C409.373,149.367 400.373,137.247 400.373,117.687C400.373,98.367 409.373,86.487 424.013,86.487C438.533,86.487 447.413,98.247 447.413,117.687C447.413,137.367 438.533,149.367 424.013,149.367ZM424.013,141.591C413.387,141.591 408.149,131.883 408.149,117.687C408.149,103.725 413.432,94.264 424.013,94.264C434.495,94.264 439.636,103.653 439.636,117.687C439.636,131.956 434.54,141.591 424.013,141.591Z"
   style="fill:#591123;stroke-width:1.00010421;stroke-dasharray:none;fill-opacity:1"
   id="path6" />
        <path
   d="M510.173,175.624C512.391,175.624 514.505,174.676 515.98,173.019C517.456,171.362 518.154,169.153 517.897,166.949C517.327,162.045 516.989,156.456 516.989,149.727L516.989,142.144C516.989,142.144 528.173,142.144 528.173,142.144C542.111,142.144 553.081,138.054 560.661,131.049C568.458,123.843 572.909,113.443 572.909,100.287C572.909,87.248 568.537,77.284 560.744,70.465C553.311,63.961 542.444,60.231 528.293,60.231L502.013,60.231C494.476,60.231 490.237,60.113 484.703,59.878C482.413,59.78 480.197,60.698 478.646,62.385C477.095,64.073 476.368,66.359 476.658,68.632C477.338,73.955 477.556,79.052 477.556,85.167L477.556,150.087C477.556,156.748 477.344,161.829 476.667,166.797C476.364,169.022 477.037,171.27 478.514,172.962C479.991,174.653 482.127,175.624 484.373,175.624L510.173,175.624ZM510.173,167.847C509.573,162.687 509.213,156.807 509.213,149.727L509.213,134.367L528.173,134.367C551.453,134.367 565.133,121.647 565.133,100.287C565.133,79.407 552.053,68.007 528.293,68.007L502.013,68.007C494.333,68.007 490.013,67.887 484.373,67.647C485.093,73.287 485.333,78.687 485.333,85.167L485.333,150.087C485.333,157.167 485.093,162.567 484.373,167.847L510.173,167.847ZM509.213,113.967L509.213,88.407L527.093,88.407C535.733,88.407 540.413,92.727 540.413,101.007C540.413,109.287 535.493,113.967 527.093,113.967L509.213,113.967ZM516.989,106.191L516.989,96.184C516.989,96.184 527.093,96.184 527.093,96.184C529.044,96.184 530.649,96.313 531.666,97.269C532.534,98.085 532.636,99.41 532.636,101.007C532.636,102.692 532.424,104.105 531.496,105.002C530.494,105.972 528.939,106.191 527.093,106.191L516.989,106.191Z"
   style="fill:#591123;fill-opacity:1"
   id="path7" />
    </g>
</svg>

<svg width="100%" height="100%" viewBox="0 20 300 200" version="1.1" xmlns="http://www.w3.org/2000/svg" xmlns:xlink="http://www.w3.org/1999/xlink" xml:space="preserve" xmlns:serif="http://www.serif.com/" style="fill-rule:evenodd;clip-rule:evenodd;stroke-linecap:round;stroke-linejoin:round;stroke-miterlimit:1.5;">
    <g transform="matrix(0.855083,0,0,0.633701,21.7376,73.7546)">
        <path d="M0,180L150,0.536L300,180" style="fill:none;stroke:rgb(250,242,218);stroke-width:39.86px;"/>
    </g>
    <g transform="matrix(0.642933,6.84109e-34,-6.84109e-34,0.642933,-121.724,87.7512)">
        <g transform="matrix(120,0,0,120,278.333,164.127)">
            <path d="M0.489,-0.624L0.602,-0.624C0.674,-0.624 0.713,-0.622 0.758,-0.617L0.758,-0.808C0.712,-0.803 0.672,-0.801 0.602,-0.801L0.164,-0.801C0.103,-0.801 0.048,-0.804 0.015,-0.808L0.015,-0.617C0.086,-0.623 0.103,-0.624 0.166,-0.624L0.284,-0.624L0.284,-0.12C0.284,-0.057 0.282,-0.016 0.276,0.031L0.497,0.031C0.491,-0.016 0.489,-0.06 0.489,-0.12L0.489,-0.624Z" style="fill:rgb(250,242,218);fill-rule:nonzero;"/>
        </g>
        <g transform="matrix(120,0,0,120,371.093,164.127)">
            <path d="M0.441,-0.819C0.195,-0.819 0.037,-0.65 0.037,-0.386C0.037,-0.121 0.195,0.05 0.44,0.05C0.683,0.05 0.844,-0.125 0.844,-0.389C0.844,-0.651 0.687,-0.819 0.441,-0.819ZM0.441,-0.123C0.319,-0.123 0.244,-0.224 0.244,-0.387C0.244,-0.548 0.319,-0.647 0.441,-0.647C0.562,-0.647 0.636,-0.549 0.636,-0.387C0.636,-0.223 0.562,-0.123 0.441,-0.123Z" style="fill:rgb(250,242,218);fill-rule:nonzero;"/>
        </g>
        <g transform="matrix(120,0,0,120,476.933,164.127)">
            <path d="M0.277,0.031C0.272,-0.012 0.269,-0.061 0.269,-0.12L0.269,-0.248L0.427,-0.248C0.621,-0.248 0.735,-0.354 0.735,-0.532C0.735,-0.706 0.626,-0.801 0.428,-0.801L0.209,-0.801C0.145,-0.801 0.109,-0.802 0.062,-0.804C0.068,-0.757 0.07,-0.712 0.07,-0.658L0.07,-0.117C0.07,-0.058 0.068,-0.013 0.062,0.031L0.277,0.031ZM0.269,-0.418L0.269,-0.631L0.418,-0.631C0.49,-0.631 0.529,-0.595 0.529,-0.526C0.529,-0.457 0.488,-0.418 0.418,-0.418L0.269,-0.418Z" style="fill:rgb(250,242,218);fill-rule:nonzero;"/>
        </g>
        <path d="M344.789,97.024L350.573,97.024C358.816,97.024 363.282,97.244 368.434,97.817C370.632,98.061 372.831,97.358 374.479,95.882C376.127,94.407 377.069,92.3 377.069,90.087L377.069,67.167C377.069,64.959 376.13,62.854 374.486,61.379C372.842,59.904 370.648,59.197 368.452,59.436C363.18,60.009 358.595,60.231 350.573,60.231L298.013,60.231C291.076,60.231 284.821,59.902 281.068,59.447C278.859,59.179 276.641,59.871 274.975,61.347C273.309,62.823 272.356,64.942 272.356,67.167L272.356,90.087C272.356,92.264 273.268,94.341 274.87,95.813C276.472,97.286 278.619,98.02 280.787,97.837C289,97.143 290.966,97.024 298.253,97.024C298.253,97.024 304.636,97.024 304.636,97.024C304.636,97.024 304.636,149.727 304.636,149.727C304.636,156.876 304.419,161.529 303.738,166.863C303.455,169.079 304.139,171.31 305.616,172.987C307.092,174.663 309.218,175.624 311.453,175.624L337.973,175.624C340.207,175.624 342.333,174.663 343.809,172.987C345.286,171.31 345.97,169.079 345.687,166.863C345.006,161.529 344.789,156.536 344.789,149.727L344.789,97.024ZM337.013,89.247L350.573,89.247C359.213,89.247 363.893,89.487 369.293,90.087L369.293,67.167C363.773,67.767 358.973,68.007 350.573,68.007L298.013,68.007C290.693,68.007 284.093,67.647 280.133,67.167L280.133,90.087C288.653,89.367 290.693,89.247 298.253,89.247L312.413,89.247L312.413,149.727C312.413,157.287 312.173,162.207 311.453,167.847L337.973,167.847C337.253,162.207 337.013,156.927 337.013,149.727L337.013,89.247Z" style="fill:rgb(226,143,131);"/>
        <path d="M424.013,58.071C406.847,58.071 392.822,64.139 383.018,74.641C373.389,84.955 367.756,99.715 367.756,117.807C367.756,135.943 373.378,150.786 382.976,161.171C392.772,171.77 406.78,177.904 423.893,177.904C457.529,177.904 480.149,153.991 480.149,117.447C480.149,99.472 474.544,84.799 464.939,74.542C455.169,64.109 441.179,58.071 424.013,58.071ZM424.013,65.847C394.493,65.847 375.533,86.127 375.533,117.807C375.533,149.607 394.493,170.127 423.893,170.127C453.053,170.127 472.373,149.127 472.373,117.447C472.373,86.007 453.533,65.847 424.013,65.847ZM424.013,149.367C409.373,149.367 400.373,137.247 400.373,117.687C400.373,98.367 409.373,86.487 424.013,86.487C438.533,86.487 447.413,98.247 447.413,117.687C447.413,137.367 438.533,149.367 424.013,149.367ZM424.013,141.591C413.387,141.591 408.149,131.883 408.149,117.687C408.149,103.725 413.432,94.264 424.013,94.264C434.495,94.264 439.636,103.653 439.636,117.687C439.636,131.956 434.54,141.591 424.013,141.591Z" style="fill:rgb(226,143,131);"/>
        <path d="M510.173,175.624C512.391,175.624 514.505,174.676 515.98,173.019C517.456,171.362 518.154,169.153 517.897,166.949C517.327,162.045 516.989,156.456 516.989,149.727L516.989,142.144C516.989,142.144 528.173,142.144 528.173,142.144C542.111,142.144 553.081,138.054 560.661,131.049C568.458,123.843 572.909,113.443 572.909,100.287C572.909,87.248 568.537,77.284 560.744,70.465C553.311,63.961 542.444,60.231 528.293,60.231L502.013,60.231C494.476,60.231 490.237,60.113 484.703,59.878C482.413,59.78 480.197,60.698 478.646,62.385C477.095,64.073 476.368,66.359 476.658,68.632C477.338,73.955 477.556,79.052 477.556,85.167L477.556,150.087C477.556,156.748 477.344,161.829 476.667,166.797C476.364,169.022 477.037,171.27 478.514,172.962C479.991,174.653 482.127,175.624 484.373,175.624L510.173,175.624ZM510.173,167.847C509.573,162.687 509.213,156.807 509.213,149.727L509.213,134.367L528.173,134.367C551.453,134.367 565.133,121.647 565.133,100.287C565.133,79.407 552.053,68.007 528.293,68.007L502.013,68.007C494.333,68.007 490.013,67.887 484.373,67.647C485.093,73.287 485.333,78.687 485.333,85.167L485.333,150.087C485.333,157.167 485.093,162.567 484.373,167.847L510.173,167.847ZM509.213,113.967L509.213,88.407L527.093,88.407C535.733,88.407 540.413,92.727 540.413,101.007C540.413,109.287 535.493,113.967 527.093,113.967L509.213,113.967ZM516.989,106.191L516.989,96.184C516.989,96.184 527.093,96.184 527.093,96.184C529.044,96.184 530.649,96.313 531.666,97.269C532.534,98.085 532.636,99.41 532.636,101.007C532.636,102.692 532.424,104.105 531.496,105.002C530.494,105.972 528.939,106.191 527.093,106.191L516.989,106.191Z" style="fill:rgb(226,143,131);"/>
    </g>
</svg>
